public/assets/images/not-check.svg

<svg width="30" height="30" viewBox="0 0 30 30" fill="none" xmlns="http://www.w3.org/2000/svg">
<circle cx="15" cy="15" r="15" fill="#E2E7EF"/>
<path d="M21.7949 20.1907C21.8599 20.2526 21.9115 20.3261 21.9467 20.407C21.9819 20.4879 22 20.5746 22 20.6621C22 20.7497 21.9819 20.8364 21.9467 20.9173C21.9115 20.9982 21.8599 21.0717 21.7949 21.1336C21.7298 21.1955 21.6526 21.2447 21.5677 21.2782C21.4827 21.3117 21.3916 21.3289 21.2996 21.3289C21.2077 21.3289 21.1166 21.3117 21.0316 21.2782C20.9467 21.2447 20.8695 21.1955 20.8044 21.1336L15 15.6066L9.19557 21.1336C9.06423 21.2587 8.88609 21.3289 8.70035 21.3289C8.51461 21.3289 8.33647 21.2587 8.20513 21.1336C8.07379 21.0086 8 20.839 8 20.6621C8 20.4853 8.07379 20.3157 8.20513 20.1907L14.0104 14.6645L8.20513 9.13826C8.07379 9.01322 8 8.84362 8 8.66678C8 8.48994 8.07379 8.32034 8.20513 8.1953C8.33647 8.07025 8.51461 8 8.70035 8C8.88609 8 9.06423 8.07025 9.19557 8.1953L15 13.7223L20.8044 8.1953C20.9358 8.07025 21.1139 8 21.2996 8C21.4854 8 21.6635 8.07025 21.7949 8.1953C21.9262 8.32034 22 8.48994 22 8.66678C22 8.84362 21.9262 9.01322 21.7949 9.13826L15.9896 14.6645L21.7949 20.1907Z" fill="#FDFDFD"/>
</svg>

<svg xmlns="http://www.w3.org/2000/svg" width="30" height="30" fill="none"><circle cx="15" cy="15" r="15" fill="#E2E7EF"/><path fill="#FDFDFD" d="M21.795 20.19a.666.666 0 0 1 .205.472.64.64 0 0 1-.205.472.705.705 0 0 1-.495.195.732.732 0 0 1-.496-.195L15 15.607l-5.804 5.527a.718.718 0 0 1-.496.195.718.718 0 0 1-.495-.195.65.65 0 0 1-.205-.472.65.65 0 0 1 .205-.471l5.805-5.526-5.805-5.527A.651.651 0 0 1 8 8.667c0-.177.074-.347.205-.472A.719.719 0 0 1 8.7 8c.186 0 .364.07.496.195L15 13.722l5.804-5.527A.719.719 0 0 1 21.3 8c.185 0 .363.07.495.195a.651.651 0 0 1 .205.472.651.651 0 0 1-.205.471l-5.805 5.527 5.805 5.526Z"/></svg>
